packages/core/src/svgs/tokens/mono/ALOT.svg

<svg width="24" height="24" viewBox="0 0 24 24" fill="none" xmlns="http://www.w3.org/2000/svg">
<path d="M21.9997 9.5451L17.4788 12.5109C21.0443 9.62285 21.0443 6.49608 21.0443 6.49608L16.3181 11.2391C19.5004 5.87961 18.3341 3.66919 18.3341 3.66919L14.5686 10.1283C13.7442 9.89823 12.892 9.78238 12.0361 9.78393H11.975C11.1198 9.78393 10.2699 9.89499 9.44249 10.1283L5.67142 3.66919C5.67142 3.66919 4.34961 5.69633 7.53195 11.0557L2.96671 6.50164C2.96671 6.50164 2.50019 9.26743 6.31011 12.3386C6.2879 12.372 2.00034 9.5451 2.00034 9.5451C2.00034 9.5451 1.88927 12.211 5.66587 14.3436V14.4158C5.66587 17.3038 8.48164 20.3028 11.975 20.3307H12.0305C15.5183 20.2973 18.3397 17.3093 18.3397 14.4158V14.3436C22.1107 12.211 21.9997 9.5451 21.9997 9.5451ZM9.87013 17.3204C9.87013 17.3204 8.75378 17.3982 8.10954 16.7207C7.4653 16.0486 7.54305 14.8768 7.54305 14.8768C7.54305 14.8768 8.66492 14.799 9.30916 15.4766C9.95346 16.1541 9.87013 17.326 9.87013 17.326V17.3204ZM15.9016 16.7207C15.2573 17.3982 14.141 17.326 14.141 17.326C14.141 17.326 14.0688 16.1541 14.713 15.4766C15.3573 14.799 16.4736 14.8768 16.4736 14.8768C16.4736 14.8768 16.5402 16.0431 15.8904 16.7207H15.9016Z" fill="white"/>
</svg>

<svg xmlns="http://www.w3.org/2000/svg" width="24" height="24" fill="none" viewBox="0 0 24 24">
    <path fill="#fff" d="m22 9.545-4.521 2.966c3.565-2.888 3.565-6.015 3.565-6.015l-4.726 4.743c3.182-5.36 2.016-7.57 2.016-7.57l-3.765 6.46a9.4 9.4 0 0 0-2.533-.345h-.061c-.855 0-1.705.111-2.533.344L5.672 3.67s-1.322 2.027 1.86 7.387L2.967 6.502S2.5 9.267 6.31 12.339C6.288 12.372 2 9.545 2 9.545s-.11 2.666 3.666 4.799v.072c0 2.888 2.816 5.887 6.309 5.915h.056c3.487-.034 6.309-3.022 6.309-5.915v-.072C22.11 12.21 22 9.545 22 9.545M9.87 17.32s-1.116.078-1.76-.6c-.645-.671-.567-1.843-.567-1.843s1.122-.078 1.766.6.561 1.849.561 1.849zm6.032-.6c-.645.678-1.761.606-1.761.606s-.072-1.172.572-1.85c.644-.677 1.76-.6 1.76-.6s.067 1.167-.583 1.845z"/>
</svg>
